X: 40958
T: Trip To Cullenstown, The
R: reel
M: 4/4
K: Gmajor
|:d3e dBGA|B3G AGEG|d3e dBGA|BAAG A4|
BABd e2 dB|d3e dBGA|B3G AGEG|1 DGGF GABc:|2 DGGF G3 A||
|:Bd d2 ce e2|d3e dBGA|Bd d2 ed d2|gedB A4|
BABd e2 dB|d3e dBGA|B3G AGEG|DGGF G4:|

